X:2441
T:Polska från Norrland
T:Svenska Folkdansar H1 nr 24
O:Norrland
B:Traditioner av Svenska Folkdansar Häfte 1, nr 24
R:Polska
Z:Nils L
N:Se även [[Musik/366|+]]
M:3/4
L:1/16
K:Am
.c2(cB) .A2.c2 .B2.A2 | .^G2(G^F) EFGA BcdB | e4 .A2.c2 .B2.A2 | (^GABG) A4 E4 ::
{d/}c2Bc {e/}d2cd e4 | dcBA ^GABG E4 | {d/}c2Bc {e/}d2cd e4 | (dcBc) A4 E4 :|
(:musicend:)
(:music:)
